X:70
T:Leominster Assembly
M:2/4
L:1/8
B:Thompson's Compleat Collection of 200 Favourite Country Dances, vol. 3 (London, 1773)
Z:Transcribed and edited by Flynn Titford-Mock, 2007
Z:abc's:AK/Fiddler's Companion
K:D
(3ABc | d>Ad>A | d2 (3efg | fddA | dA FD | d>Ad>A | d2 (3gab | afef | d2 :|
|: (3Ace | A>AA>A | A2g2 | fdBB | ecAA | A>AA>A | A2 g2 | faAc | d2 :|

